src/assets/img/send-down-arrow.svg

<svg version="1.2" baseProfile="tiny-ps" xmlns="http://www.w3.org/2000/svg" width="32" height="36"><style></style><g id="Popups"><g id="Confirmation TEZ"><g id="Group 12"><path id="Icon" d="M18.86 34.87a3.93 3.93 0 0 0 0-5.55L6.67 17.12a3.917 3.917 0 0 0-5.54 0 3.93 3.93 0 0 0 0 5.55l12.19 12.2a3.917 3.917 0 0 0 5.54 0Zm-5.69-.06a3.905 3.905 0 0 1 0-5.53l12.15-12.17a3.911 3.911 0 0 1 5.52 0 3.917 3.917 0 0 1 0 5.54L18.69 34.81c-1.52 1.53-4 1.53-5.52 0ZM16.03 0c2.21 0 3.99 1.79 3.99 3.99v23.99c0 2.2-1.78 3.99-3.99 3.99-2.2 0-3.99-1.79-3.99-3.99V3.99c0-2.2 1.79-3.99 3.99-3.99Z" style="fill-opacity:.329;fill:#b3c4d5"/></g></g></g></svg>

<svg version="1.2" baseProfile="tiny-ps" xmlns="http://www.w3.org/2000/svg" viewBox="0 0 32 36" width="32" height="36">
	<title>Popups</title>
	<style>
		tspan { white-space:pre }
		.shp0 { fill-opacity: 0.329;fill: #b3c4d5 } 
	</style>
	<g id="Popups">
		<g id="Confirmation TEZ">
			<g id="Group 12">
				<path id="Icon" class="shp0" d="M18.86 34.87C20.39 33.33 20.39 30.85 18.86 29.32L6.67 17.12C5.14 15.59 2.66 15.59 1.13 17.12C-0.4 18.65 -0.4 21.13 1.13 22.67L13.32 34.87C14.85 36.4 17.33 36.4 18.86 34.87ZM13.17 34.81C11.64 33.28 11.64 30.8 13.17 29.28L25.32 17.11C26.84 15.59 29.31 15.59 30.84 17.11C32.37 18.64 32.37 21.12 30.84 22.65L18.69 34.81C17.17 36.34 14.69 36.34 13.17 34.81ZM16.03 0C18.24 0 20.02 1.79 20.02 3.99L20.02 27.98C20.02 30.18 18.24 31.97 16.03 31.97C13.83 31.97 12.04 30.18 12.04 27.98L12.04 3.99C12.04 1.79 13.83 0 16.03 0Z" />
			</g>
		</g>
	</g>
</svg>
